img/svg/net/google.svg

<?xml version="1.0" encoding="iso-8859-1"?>
<!-- Generator: Adobe Illustrator 21.0.2, SVG Export Plug-In . SVG Version: 6.00 Build 0)  -->
<svg version="1.1" id="&#x56FE;&#x5C42;_1" xmlns="http://www.w3.org/2000/svg" xmlns:xlink="http://www.w3.org/1999/xlink" x="0px"
	 y="0px" viewBox="0 0 16 16" style="enable-background:new 0 0 16 16;" xml:space="preserve">
<g>
	<path d="M8.896,4.588C8.767,4.363,8.609,4.176,8.421,4.027C8.232,3.878,8.014,3.804,7.765,3.804c-0.161,0-0.317,0.036-0.469,0.109
		C7.144,3.985,7.02,4.081,6.924,4.202c-0.104,0.129-0.174,0.27-0.211,0.423c-0.036,0.153-0.054,0.309-0.054,0.47
		c0,0.201,0.03,0.426,0.09,0.676c0.06,0.249,0.152,0.483,0.277,0.7c0.124,0.217,0.28,0.4,0.469,0.549
		c0.188,0.149,0.411,0.223,0.667,0.223c0.153,0,0.303-0.032,0.451-0.097c0.148-0.064,0.27-0.145,0.367-0.242
		C9.116,6.768,9.2,6.615,9.232,6.446C9.264,6.277,9.28,6.136,9.28,6.024c0-0.217-0.032-0.454-0.096-0.712
		C9.12,5.055,9.024,4.813,8.896,4.588z"/>
	<path d="M8.505,9.178c-0.036,0-0.086,0-0.151,0c-0.024,0-0.08,0.002-0.168,0.006C8.098,9.188,7.994,9.197,7.874,9.208
		C7.754,9.22,7.625,9.24,7.489,9.269C7.352,9.297,7.22,9.331,7.092,9.371c-0.064,0.024-0.154,0.062-0.27,0.114
		C6.705,9.537,6.591,9.611,6.479,9.707c-0.112,0.096-0.21,0.217-0.295,0.361c-0.084,0.145-0.126,0.325-0.126,0.541
		c0,0.433,0.19,0.785,0.571,1.058c0.38,0.272,0.895,0.409,1.545,0.409c0.577,0,1.016-0.122,1.317-0.367
		c0.3-0.245,0.451-0.555,0.451-0.932c0-0.152-0.026-0.29-0.078-0.415c-0.052-0.124-0.13-0.246-0.234-0.367
		C9.525,9.876,9.388,9.751,9.22,9.623C9.052,9.495,8.855,9.351,8.631,9.19C8.583,9.182,8.541,9.178,8.505,9.178z"/>
	<path d="M8,1C4.134,1,1,4.134,1,8c0,3.866,3.134,7,7,7s7-3.134,7-7C15,4.134,11.866,1,8,1z M9.737,4.063
		C9.833,4.155,9.925,4.267,10.014,4.4c0.088,0.133,0.164,0.287,0.228,0.463c0.064,0.176,0.096,0.377,0.096,0.602
		c0,0.225-0.028,0.422-0.084,0.59c-0.056,0.169-0.132,0.319-0.228,0.452C9.93,6.639,9.822,6.76,9.701,6.868
		c-0.12,0.109-0.245,0.211-0.373,0.307C9.248,7.255,9.172,7.34,9.1,7.428C9.028,7.516,8.992,7.629,8.992,7.765
		c0,0.137,0.036,0.243,0.108,0.319C9.172,8.16,9.24,8.227,9.304,8.283L9.737,8.62c0.128,0.113,0.255,0.225,0.379,0.337
		c0.124,0.112,0.233,0.233,0.325,0.362c0.092,0.128,0.166,0.272,0.223,0.432c0.056,0.16,0.084,0.345,0.084,0.554
		c0,0.281-0.068,0.558-0.205,0.831c-0.136,0.273-0.336,0.516-0.601,0.729c-0.265,0.212-0.595,0.385-0.992,0.518
		c-0.397,0.132-0.852,0.199-1.365,0.199c-0.433,0-0.811-0.048-1.137-0.144c-0.324-0.096-0.595-0.225-0.812-0.385
		c-0.216-0.16-0.376-0.343-0.481-0.547C5.052,11.3,5,11.086,5,10.861c0-0.217,0.066-0.463,0.199-0.74
		c0.132-0.276,0.375-0.519,0.727-0.727c0.184-0.112,0.383-0.202,0.595-0.27c0.212-0.068,0.423-0.122,0.631-0.162
		c0.208-0.04,0.405-0.068,0.589-0.084C7.926,8.862,8.086,8.85,8.222,8.842c-0.088-0.113-0.17-0.231-0.247-0.355
		C7.9,8.363,7.862,8.209,7.862,8.024c0-0.104,0.012-0.19,0.036-0.258C7.922,7.698,7.95,7.628,7.982,7.555
		C7.918,7.563,7.854,7.569,7.789,7.573C7.725,7.577,7.661,7.579,7.597,7.579c-0.321,0-0.606-0.054-0.854-0.162
		C6.495,7.309,6.286,7.167,6.118,6.99C5.95,6.814,5.822,6.611,5.734,6.383C5.645,6.154,5.601,5.924,5.601,5.691
		c0-0.28,0.064-0.563,0.192-0.848C5.922,4.56,6.114,4.305,6.371,4.08C6.715,3.8,7.078,3.62,7.459,3.539
		c0.381-0.08,0.736-0.12,1.064-0.12H11L10.23,3.84H9.485C9.557,3.896,9.641,3.971,9.737,4.063z"/>
</g>
</svg>

<svg xmlns="http://www.w3.org/2000/svg" viewBox="0 0 16 16"><title>google</title><path d="M8.9,4.59A1.9,1.9,0,0,0,8.42,4a1,1,0,0,0-.66-.22,1.08,1.08,0,0,0-.47.11,1,1,0,0,0-.37.29,1,1,0,0,0-.21.42,2,2,0,0,0-.05.47,2.91,2.91,0,0,0,.09.68,2.66,2.66,0,0,0,.28.7A1.88,1.88,0,0,0,7.49,7a1,1,0,0,0,.67.22,1.12,1.12,0,0,0,.45-.1A1.17,1.17,0,0,0,9,6.9a.87.87,0,0,0,.25-.46,2.36,2.36,0,0,0,0-.42,3,3,0,0,0-.1-.71A2.84,2.84,0,0,0,8.9,4.59Z"/><path d="M8.5,9.18H8.19l-.31,0-.38.06-.4.1-.27.11a1.42,1.42,0,0,0-.34.22,1.4,1.4,0,0,0-.29.36,1.06,1.06,0,0,0-.13.54,1.25,1.25,0,0,0,.57,1.06,2.61,2.61,0,0,0,1.55.41,2,2,0,0,0,1.32-.37,1.15,1.15,0,0,0,.45-.93,1.06,1.06,0,0,0-.08-.42A1.39,1.39,0,0,0,9.63,10a2.74,2.74,0,0,0-.41-.37l-.59-.43Z"/><path d="M8,1a7,7,0,1,0,7,7A7,7,0,0,0,8,1ZM9.74,4.06A2,2,0,0,1,10,4.4a2.19,2.19,0,0,1,.23.46,1.75,1.75,0,0,1,.1.6,1.88,1.88,0,0,1-.08.59,1.65,1.65,0,0,1-.23.45,2.32,2.32,0,0,1-.32.36l-.37.31-.23.25A.52.52,0,0,0,9,7.76a.45.45,0,0,0,.11.32l.2.2.43.34.38.34a2.25,2.25,0,0,1,.32.36,1.71,1.71,0,0,1,.22.43,1.68,1.68,0,0,1,.08.55,1.84,1.84,0,0,1-.2.83,2.19,2.19,0,0,1-.6.73,3.18,3.18,0,0,1-1,.52,4.3,4.3,0,0,1-1.36.2,4,4,0,0,1-1.14-.14,2.6,2.6,0,0,1-.81-.38,1.58,1.58,0,0,1-.48-.55A1.4,1.4,0,0,1,5,10.86a1.74,1.74,0,0,1,.93-1.47,2.76,2.76,0,0,1,.6-.27A5.43,5.43,0,0,1,7.15,9a5.78,5.78,0,0,1,.59-.08l.48,0A3.79,3.79,0,0,1,8,8.49.87.87,0,0,1,7.86,8a.79.79,0,0,1,0-.26L8,7.56l-.19,0H7.6a2.12,2.12,0,0,1-.85-.16A1.9,1.9,0,0,1,6.12,7a1.81,1.81,0,0,1-.38-.61,1.9,1.9,0,0,1-.13-.69,2,2,0,0,1,.19-.85,2.23,2.23,0,0,1,.58-.76,2.56,2.56,0,0,1,1.09-.54,5.22,5.22,0,0,1,1.06-.12H11l-.77.42H9.48Z"/></svg>
